X:84
T:score172
L:1/8
Q:1/4=96
M:6/8
I:linebreak $
K:E
!f! b g e B G B | c3 a3- | a a g Tf e d |$ e B G E z z | b g e B G B | c3 a3- | a a g Tf e d |$ %7
 e B G E z z |] %8
